icons/svg/whatsapp.svg

﻿<?xml version="1.0" encoding="utf-8"?>
<!DOCTYPE svg PUBLIC "-//W3C//DTD SVG 1.1//EN" "http://www.w3.org/Graphics/SVG/1.1/DTD/svg11.dtd">
<svg xmlns="http://www.w3.org/2000/svg" xmlns:xlink="http://www.w3.org/1999/xlink" version="1.1" baseProfile="full" width="24" height="24" viewBox="0 0 24.00 24.00" enable-background="new 0 0 24.00 24.00" xml:space="preserve">
	<path fill="#231F20" fill-opacity="1" fill-rule="evenodd" stroke-width="0.2" stroke-linejoin="round" d="M 16.748,13.9562C 16.9917,14.0896 17.1553,14.1584 17.2137,14.2642C 17.2721,14.3703 17.2536,14.8684 17.0245,15.4409C 16.7954,16.0136 15.7589,16.5361 15.3013,16.5601C 14.8441,16.5848 14.8314,16.9171 12.3404,15.8267C 9.84975,14.7357 8.35113,12.0834 8.233,11.9128C 8.11488,11.7427 7.26854,10.5266 7.3143,9.30327C 7.36005,8.07952 8.02499,7.50188 8.26221,7.26206C 8.49943,7.02127 8.77105,6.96934 8.93688,6.97551L 9.41295,7.01413C 9.55801,7.01965 9.7683,6.94468 9.95684,7.44995L 10.6546,9.32469C 10.712,9.45125 10.748,9.59793 10.6588,9.76084L 10.3946,10.1663L 10.0052,10.588C 9.87604,10.7071 9.74104,10.8369 9.87701,11.091C 10.013,11.3455 10.4816,12.1783 11.1962,12.8652C 12.1139,13.7475 12.9057,14.0406 13.1498,14.174C 13.3938,14.308 13.5395,14.2931 13.6911,14.1324L 14.515,13.1874C 14.6899,12.9444 14.8541,12.9922 15.079,13.0836L 16.748,13.9562 Z M 12,2C 17.5228,2 22,6.47715 22,12C 22,17.5229 17.5228,22 12,22C 10.0322,22 8.19707,21.4316 6.64996,20.45L 2,22L 3.54999,17.35C 2.5684,15.8029 2,13.9678 2,12C 2,6.47715 6.47715,2 12,2 Z M 12,4.00001C 7.58172,4.00001 4,7.58173 4,12C 4,13.7176 4.54129,15.3088 5.46258,16.6122L 4.5,19.5L 7.38775,18.5374C 8.69122,19.4587 10.2824,20 12,20C 16.4183,20 20,16.4183 20,12C 20,7.58173 16.4183,4.00001 12,4.00001 Z "/>
</svg>

<svg xmlns="http://www.w3.org/2000/svg" version="1.1" baseProfile="full" width="24" height="24" viewBox="0 0 24.00 24.00" xml:space="preserve"><path fill="#231F20" fill-opacity="1" fill-rule="evenodd" stroke-width=".2" stroke-linejoin="round" d="M16.748 13.956c.244.134.407.202.466.308.058.106.04.604-.19 1.177-.23.574-1.265 1.096-1.723 1.12-.456.025-.47.357-2.96-.733-2.49-1.09-3.99-3.744-4.107-3.914-.118-.17-.964-1.386-.92-2.61.047-1.223.712-1.8.95-2.04.236-.242.508-.294.674-.287l.476.038c.145.006.355-.07.544.436l.698 1.875c.057.126.093.273.004.436l-.265.406-.39.422c-.13.12-.264.25-.128.503.136.255.605 1.088 1.32 1.775.917.883 1.71 1.176 1.953 1.31.244.133.39.118.54-.043l.825-.945c.175-.243.34-.195.564-.103l1.668.872zM12 2c5.523 0 10 4.477 10 10s-4.477 10-10 10c-1.968 0-3.803-.568-5.35-1.55L2 22l1.55-4.65C2.568 15.803 2 13.968 2 12 2 6.477 6.477 2 12 2zm0 2c-4.418 0-8 3.582-8 8 0 1.718.54 3.31 1.463 4.612L4.5 19.5l2.888-.963C8.69 19.46 10.282 20 12 20c4.418 0 8-3.582 8-8s-3.582-8-8-8z"/></svg>
